dist/assets/img/search.svg

<svg width="21" height="21" viewBox="0 0 21 21" fill="none" xmlns="http://www.w3.org/2000/svg">
<path d="M16.9114 15.8507C16.6185 15.5578 16.1436 15.5578 15.8507 15.8507C15.5578 16.1436 15.5578 16.6185 15.8507 16.9114L16.9114 15.8507ZM19.4697 20.5304C19.7626 20.8233 20.2374 20.8233 20.5303 20.5304C20.8232 20.2375 20.8232 19.7626 20.5303 19.4697L19.4697 20.5304ZM15.8507 16.9114L19.4697 20.5304L20.5303 19.4697L16.9114 15.8507L15.8507 16.9114ZM9.14287 16.5357C5.0599 16.5357 1.75 13.2258 1.75 9.14287H0.25C0.25 14.0543 4.23148 18.0357 9.14287 18.0357V16.5357ZM16.5357 9.14287C16.5357 13.2258 13.2258 16.5357 9.14287 16.5357V18.0357C14.0543 18.0357 18.0357 14.0543 18.0357 9.14287H16.5357ZM9.14287 1.75C13.2258 1.75 16.5357 5.0599 16.5357 9.14287H18.0357C18.0357 4.23148 14.0543 0.25 9.14287 0.25V1.75ZM9.14287 0.25C4.23148 0.25 0.25 4.23148 0.25 9.14287H1.75C1.75 5.0599 5.0599 1.75 9.14287 1.75V0.25Z" fill="#D1D1D1"/>
</svg>

<svg width="21" height="21" fill="none" xmlns="http://www.w3.org/2000/svg"><path d="M16.911 15.85a.75.75 0 0 0-1.06 1.061l1.06-1.06Zm2.559 4.68a.75.75 0 1 0 1.06-1.06l-1.06 1.06Zm-3.62-3.619 3.62 3.62 1.06-1.061-3.619-3.62-1.06 1.061Zm-6.707-.375A7.393 7.393 0 0 1 1.75 9.143H.25a8.893 8.893 0 0 0 8.893 8.893v-1.5Zm7.393-7.393a7.393 7.393 0 0 1-7.393 7.393v1.5a8.893 8.893 0 0 0 8.893-8.893h-1.5ZM9.143 1.75a7.393 7.393 0 0 1 7.393 7.393h1.5A8.893 8.893 0 0 0 9.143.25v1.5Zm0-1.5A8.893 8.893 0 0 0 .25 9.143h1.5A7.393 7.393 0 0 1 9.143 1.75V.25Z" fill="#D1D1D1"/></svg>
